Obsidian/status/22s/qomp-pause-panel.svg

<svg height="22" width="22" xmlns="http://www.w3.org/2000/svg"><path d="m11 3c-4.432 0-8 3.568-8 8s3.568 8 8 8 8-3.568 8-8-3.568-8-8-8zm0 2a6 6 0 0 1 6 6 6 6 0 0 1 -6 6 6 6 0 0 1 -6-6 6 6 0 0 1 6-6zm-3 3v6h2v-6zm4 0v6h2v-6z" fill="#d3dae3"/></svg>

<svg xmlns="http://www.w3.org/2000/svg" width="22" height="22" version="1.1">
 <defs>
  <style id="current-color-scheme" type="text/css">
   .ColorScheme-Text { color:#d3dae3; } .ColorScheme-Highlight { color:#5294e2; }
  </style>
 </defs>
 <path style="fill:currentColor" class="ColorScheme-Text" d="M 11 3 C 6.568 3 3 6.568 3 11 C 3 15.432 6.568 19 11 19 C 15.432 19 19 15.432 19 11 C 19 6.568 15.432 3 11 3 z M 11 5 A 6 6 0 0 1 17 11 A 6 6 0 0 1 11 17 A 6 6 0 0 1 5 11 A 6 6 0 0 1 11 5 z M 8 8 L 8 14 L 10 14 L 10 8 L 8 8 z M 12 8 L 12 14 L 14 14 L 14 8 L 12 8 z"/>
</svg>
